src/icons/brainfuck.svg

<svg viewBox="0 0 24 24" xmlns="http://www.w3.org/2000/svg">
  <path
    d="M21.085 13.343C21.1274 14.076 20.9834 14.8079 20.6666 15.4702C20.3497 16.1326 19.8703 16.704 19.273 17.131L20.011 18.56C20.231 18.991 20.261 19.5 20.069 19.95C19.9783 20.1735 19.8405 20.3748 19.665 20.5403C19.4895 20.7058 19.2804 20.8315 19.052 20.909L18.294 21.149C17.9785 21.2554 17.638 21.2618 17.3187 21.1675C16.9994 21.0732 16.717 20.8827 16.51 20.622L14.478 18.224C13.6207 18.0778 12.8152 17.7146 12.138 17.169C11.672 17.3122 11.1875 17.3863 10.7 17.389C9.84192 17.3887 9.00471 17.1244 8.302 16.632C7.79856 16.7832 7.27452 16.8544 6.749 16.843C5.99214 16.8494 5.24178 16.7028 4.543 16.412C3.86917 16.1113 3.29341 15.6273 2.88143 15.0152C2.46945 14.4031 2.23783 13.6874 2.213 12.95C2.136 12.26 2.251 11.56 2.549 10.926C2.26825 10.2117 2.24421 9.42206 2.481 8.692C2.83928 7.78567 3.49521 7.02818 4.341 6.544C4.898 4.924 6.461 3.84 8.178 3.955C8.92387 3.25647 9.88945 2.83906 10.9093 2.7743C11.9291 2.70953 12.9398 3.00144 13.768 3.6C14.175 3.49276 14.5941 3.43799 15.015 3.437C15.6578 3.4218 16.2953 3.55595 16.8775 3.8289C17.4597 4.10185 17.9706 4.50615 18.37 5.01C19.3264 5.26148 20.1765 5.81395 20.7947 6.58576C21.4129 7.35758 21.7664 8.3078 21.803 9.296C21.8513 10.3586 21.5625 11.4093 20.978 12.298C21.045 12.643 21.085 12.988 21.085 13.343ZM16.289 11.991C16.836 12.058 17.267 12.471 17.267 13.017C17.267 13.2713 17.166 13.5153 16.9861 13.6951C16.8063 13.875 16.5623 13.976 16.308 13.976H15.704C15.3982 14.8369 14.8608 15.5968 14.151 16.172C14.391 16.258 14.64 16.306 14.889 16.373C19.809 16.306 19.233 13.305 19.233 13.257C19.2075 12.5982 18.9214 11.9765 18.4375 11.5287C17.9537 11.0809 17.3118 10.8436 16.653 10.869C16.3988 10.8687 16.1552 10.7676 15.9755 10.5878C15.7959 10.4079 15.695 10.1642 15.695 9.91C15.695 9.65583 15.7959 9.41206 15.9755 9.23224C16.1552 9.05242 16.3988 8.95127 16.653 8.951C17.833 8.98 18.965 9.421 19.847 10.198C19.8965 9.91601 19.922 9.63031 19.923 9.344C19.866 8.155 19.329 7.12 17.171 6.918C15.973 4.08 12.951 5.652 12.951 6.535C12.923 6.755 13.153 7.225 13.191 7.254C13.317 7.25387 13.4418 7.27858 13.5583 7.32671C13.6748 7.37485 13.7806 7.44547 13.8698 7.53453C13.9589 7.6236 14.0296 7.72936 14.0779 7.84578C14.1262 7.96219 14.151 8.08698 14.151 8.213C14.1502 8.46727 14.0488 8.71089 13.8689 8.89059C13.689 9.0703 13.4453 9.17147 13.191 9.172C12.687 9.15199 12.2044 8.96283 11.821 8.635C11.36 8.932 10.833 9.115 10.286 9.172C9.739 9.22 9.289 8.836 9.26 8.309C9.24227 8.18371 9.25035 8.05611 9.28375 7.93406C9.31714 7.81201 9.37515 7.69807 9.4542 7.59926C9.53325 7.50045 9.63167 7.41885 9.74342 7.35947C9.85516 7.3001 9.97787 7.26421 10.104 7.254C10.257 7.234 11.005 7.12 11.005 6.515C11.005 5.883 11.245 5.278 11.657 4.799C10.775 4.559 9.826 4.876 8.867 6.036C7.102 5.758 6.383 5.998 5.856 7.868C4.945 8.318 4.466 8.635 4.254 9.594C5.28558 9.38458 6.35516 9.46771 7.342 9.834C7.5795 9.92474 7.77189 10.1051 7.87774 10.3363C7.9836 10.5674 7.99446 10.8309 7.908 11.07C7.819 11.3091 7.63868 11.503 7.40671 11.6092C7.17473 11.7153 6.91009 11.725 6.671 11.636C5.97126 11.3299 5.17961 11.3095 4.465 11.579C4.158 11.838 4.158 12.375 4.158 12.797C4.158 13.507 4.513 14.167 5.118 14.551C5.62519 14.8108 6.1882 14.9426 6.758 14.935C6.61384 14.6857 6.48849 14.426 6.383 14.158C6.30027 13.9096 6.31874 13.6387 6.43441 13.4039C6.55009 13.169 6.75365 12.9892 7.00097 12.9035C7.2483 12.8177 7.51946 12.8328 7.7557 12.9456C7.99193 13.0584 8.1742 13.2597 8.263 13.506C8.646 14.599 9.624 15.347 10.775 15.472C11.4219 15.4391 12.0478 15.2318 12.5865 14.8722C13.1252 14.5125 13.5566 14.0139 13.835 13.429C14.055 12.106 15.119 11.991 16.289 11.991ZM18.207 19.154L17.612 17.908L16.932 18.061L17.89 19.26L18.207 19.154ZM13.747 10.898C13.7557 10.653 13.6701 10.414 13.5079 10.2303C13.3456 10.0465 13.1192 9.93185 12.875 9.91C12.1975 9.87108 11.5323 10.1023 11.025 10.553C10.7553 10.8301 10.5448 11.1592 10.4062 11.5202C10.2677 11.8812 10.204 12.2666 10.219 12.653C10.219 12.9073 10.32 13.1513 10.4999 13.3311C10.6797 13.511 10.9237 13.612 11.178 13.612C11.3044 13.6132 11.4297 13.5892 11.5466 13.5414C11.6636 13.4935 11.7698 13.4228 11.8592 13.3334C11.9485 13.244 12.019 13.1377 12.0667 13.0207C12.1144 12.9037 12.1383 12.7784 12.137 12.652C12.137 12.394 12.204 12.135 12.357 11.924C12.4733 11.8286 12.6196 11.7776 12.77 11.78C13.297 11.809 13.748 11.416 13.748 10.898H13.747Z"
    fill="#FF4081"
  />
</svg>

<svg viewBox="0 0 24 24" xmlns="http://www.w3.org/2000/svg">
  <path
    d="M21.085 13.343a4.348 4.348 0 0 1-1.812 3.788l.738 1.429c.22.431.25.94.058 1.39a1.68 1.68 0 0 1-1.017.959l-.758.24a1.618 1.618 0 0 1-1.784-.527l-2.032-2.398a5.094 5.094 0 0 1-2.34-1.055 4.99 4.99 0 0 1-1.438.22 4.181 4.181 0 0 1-2.398-.757 5.023 5.023 0 0 1-1.553.211 5.617 5.617 0 0 1-2.206-.431 3.936 3.936 0 0 1-2.33-3.462c-.077-.69.038-1.39.336-2.024a3.313 3.313 0 0 1-.068-2.234 4.294 4.294 0 0 1 1.86-2.148c.557-1.62 2.12-2.704 3.837-2.589a4.404 4.404 0 0 1 5.59-.355 4.94 4.94 0 0 1 1.247-.163A4.156 4.156 0 0 1 18.37 5.01a4.608 4.608 0 0 1 3.433 4.286 5.046 5.046 0 0 1-.825 3.002c.067.345.106.69.106 1.045m-4.795-1.352c.547.067.978.48.978 1.026a.959.959 0 0 1-.959.959h-.604a4.966 4.966 0 0 1-1.553 2.196c.24.086.489.134.738.201 4.92-.067 4.344-3.068 4.344-3.116a2.486 2.486 0 0 0-2.58-2.388.959.959 0 0 1-.958-.959.959.959 0 0 1 .958-.959c1.18.029 2.312.47 3.194 1.247a5.04 5.04 0 0 0 .076-.854c-.057-1.189-.594-2.224-2.752-2.426-1.198-2.838-4.22-1.266-4.22-.383-.028.22.202.69.24.719a.959.959 0 0 1 .96.959.962.962 0 0 1-.96.959 2.245 2.245 0 0 1-1.37-.537c-.461.297-.988.48-1.535.537-.547.048-.997-.336-1.026-.863a.928.928 0 0 1 .844-1.055c.153-.02.901-.134.901-.739 0-.632.24-1.237.652-1.716-.882-.24-1.831.077-2.79 1.237-1.765-.278-2.484-.038-3.011 1.832-.911.45-1.39.767-1.602 1.726a5.646 5.646 0 0 1 3.088.24.97.97 0 0 1 .566 1.236.962.962 0 0 1-1.237.566 2.927 2.927 0 0 0-2.206-.057c-.307.259-.307.796-.307 1.218 0 .71.355 1.37.96 1.754a3.495 3.495 0 0 0 1.64.384 5.786 5.786 0 0 1-.375-.777.995.995 0 0 1 1.88-.652c.383 1.093 1.361 1.841 2.512 1.966a3.591 3.591 0 0 0 3.06-2.043c.22-1.323 1.284-1.438 2.454-1.438m1.918 7.163-.595-1.246-.68.153.958 1.199.317-.106m-4.46-8.256a.958.958 0 0 0-.872-.988 2.564 2.564 0 0 0-1.85.643 2.852 2.852 0 0 0-.806 2.1.959.959 0 0 0 .959.959.95.95 0 0 0 .959-.96c0-.258.067-.517.22-.728a.635.635 0 0 1 .413-.144c.527.029.978-.364.978-.882z"
    style="fill: #ff4081; stroke-width: 0.95894"
  />
</svg>
